app/client/src/widgets/wds/WDSStatBoxWidget/icon.svg

<svg width="15" height="15" viewBox="0 0 15 15" fill="none" xmlns="http://www.w3.org/2000/svg">
<path d="M13.5 1.5H1.5C0.947715 1.5 0.5 1.94772 0.5 2.5V12.5C0.5 13.0523 0.947716 13.5 1.5 13.5H13.5C14.0523 13.5 14.5 13.0523 14.5 12.5V2.5C14.5 1.94772 14.0523 1.5 13.5 1.5Z" stroke="#364252" stroke-linecap="round" stroke-linejoin="round"/>
<path d="M3.5 4.5H9.5" stroke="#364252" stroke-linecap="round" stroke-linejoin="round"/>
<path d="M3.5 10.5H4.5M5.5 10.5H4.5M3.5 7.5L4.5 6.5V10.5" stroke="#364252" stroke-linecap="round" stroke-linejoin="round"/>
<path d="M9.5 10.5V7" stroke="#364252" stroke-linecap="round"/>
<path d="M7.5 8.5L9.5 6.5L11.5 8.5" stroke="#364252" stroke-linecap="round" stroke-linejoin="round"/>
</svg>

<svg xmlns="http://www.w3.org/2000/svg" width="15" height="15" fill="none"><path stroke="#364252" stroke-linecap="round" stroke-linejoin="round" d="M13.5 1.5h-12a1 1 0 0 0-1 1v10a1 1 0 0 0 1 1h12a1 1 0 0 0 1-1v-10a1 1 0 0 0-1-1ZM3.5 4.5h6"/><path stroke="#364252" stroke-linecap="round" stroke-linejoin="round" d="M3.5 10.5h1m1 0h-1m-1-3 1-1v4"/><path stroke="#364252" stroke-linecap="round" d="M9.5 10.5V7"/><path stroke="#364252" stroke-linecap="round" stroke-linejoin="round" d="m7.5 8.5 2-2 2 2"/></svg>
